X: 20713
T: Johnny Boyle's
R: jig
M: 6/8
K: Gmajor
g2 f efg d2 B BAB|c2 A AGA B2 G GBd|
g2 f efg d2 B BcB|1 A2 a agf g2 g def:|2 A2 a agf g2 g g2 a:|
|:b2 g gfg b2 g gfg|a2 f fef a2 f d2 g|
b2 g gfg b2 g gfg|1 eag fef g2 g g2 a:|2 eag fef g2 g g3:|

